tools/download-figma-icons/icons/outlined-large/co2-footprint.svg

<svg width="64" height="64" viewBox="0 0 64 64" fill="none" xmlns="http://www.w3.org/2000/svg">
<path fill-rule="evenodd" clip-rule="evenodd" d="M28.5295 5.216C28.1626 5.251 27.5756 5.379 27.2707 5.758C26.9727 6.128 26.9757 6.726 27.0317 7.16C27.2237 8.676 28.0776 8.676 28.4415 8.676C29.5484 8.676 30.2583 7.954 30.5383 7.605C30.3213 6.885 30.2013 6.064 30.1833 5.181C29.6784 5.182 29.0895 5.191 28.5295 5.216ZM34.4289 3H34.3909C33.672 3.006 33.183 3.768 33.174 4.895C33.162 6.621 33.677 7.545 33.894 7.639C35.3998 7.637 36.1647 7.149 36.4187 6.945C36.3247 6.264 36.3207 5.511 36.4277 4.689C36.4697 4.367 36.5487 4.019 36.6617 3.662C36.3467 3.43 35.6068 3 34.4289 3ZM41.0152 3.012C39.7513 3.012 39.4054 5.058 39.4024 5.078C39.3314 5.624 39.1684 7.429 40.0823 7.662C41.3951 7.995 42.0851 7.878 42.3211 7.773C42.2611 7.055 42.3321 6.268 42.571 5.43C42.741 4.851 42.94 4.321 43.179 3.853C42.646 3.463 41.8391 3.016 41.0212 3.012H41.0152ZM47.1795 4.06C46.9106 4.06 46.7696 4.13 46.7006 4.17C46.2196 4.42 45.7697 5.16 45.4597 6.26C45.0098 7.821 45.6507 8.63 46.0307 8.78L46.032 8.78051C46.9812 9.15127 47.72 9.4398 48.8304 6.85C48.9103 6.651 48.9993 6.26 48.9993 5.84C48.9993 5.55 48.9593 5.24 48.8394 4.981C48.7404 4.75 48.5304 4.41 47.9005 4.2C47.5995 4.09 47.3605 4.06 47.1795 4.06ZM42.2411 7.933L42.34 7.989C42.34 7.93286 42.3319 7.88487 42.3225 7.82952L42.3211 7.821V7.816C42.2971 7.846 42.2731 7.876 42.2411 7.933ZM32.2511 10.143C31.3872 10.938 30.0994 11.676 28.4415 11.676C26.0608 11.676 24.379 10.09 24.055 7.538C23.824 5.704 24.404 4.536 24.9319 3.879C25.6948 2.93 26.8687 2.357 28.3275 2.223C29.2634 2.181 30.2233 2.179 30.8443 2.184C31.6312 0.765 33 0.011 34.3669 0H34.4299C36.2197 0 37.4856 0.601 38.2325 1.103C38.9394 0.455 39.8573 0.012 41.0122 0.012H41.0372C42.861 0.022 44.3418 0.946 45.1647 1.594C45.1657 1.593 45.1677 1.591 45.1697 1.59C45.2037 1.56286 45.2376 1.54492 45.2718 1.52682C45.2881 1.51825 45.3043 1.50964 45.3207 1.5C46.0497 1.12 47.2495 0.79 48.8894 1.361C50.1502 1.8 51.0801 2.63 51.5891 3.77C52.32 5.42 51.929 7.22 51.5801 8.03L51.5773 8.03635C51.1152 9.11142 49.8735 12 46.9906 12C46.3796 12 45.7007 11.87 44.9298 11.57C44.3898 11.361 43.9009 11.01 43.4809 10.54C43.4799 10.539 43.4789 10.5378 43.4779 10.5365C43.4769 10.5352 43.4759 10.534 43.4749 10.533C43.001 10.733 42.39 10.881 41.5891 10.881C40.9582 10.881 40.2153 10.791 39.3424 10.57C38.6984 10.405 38.1625 10.091 37.7165 9.673C36.9266 10.147 35.6908 10.637 33.891 10.637C33.299 10.637 32.7451 10.464 32.2511 10.143ZM59.6491 14.5705C56.6884 17.3405 55.7095 17.4505 54.4387 16.3405C53.4288 15.4505 54.2987 13.1105 55.5395 11.3205C56.2395 10.2995 57.1594 9.1205 58.0183 9.0095C58.0693 9.0005 58.1193 9.0005 58.1693 9.0005C58.6992 9.0005 59.3591 9.3405 60.128 10.0005C60.678 10.4805 60.979 11.0995 60.999 11.7995C61.018 12.7405 60.529 13.7505 59.6491 14.5705ZM62.0878 7.7305C60.539 6.4005 59.0882 5.8495 57.6383 6.0305C55.6095 6.2995 54.1887 7.9905 53.0698 9.6105C50.5401 13.2695 50.3101 16.7105 52.4689 18.5995C53.6387 19.6205 54.7686 20.0095 55.8485 20.0095C58.2292 20.0095 60.289 18.0805 61.6989 16.7595C63.1987 15.3605 64.0386 13.5305 63.9986 11.7405C63.9676 10.1795 63.2887 8.7595 62.0878 7.7305ZM43.3607 35.8098C33.3908 39.8798 31.351 45.4908 31.391 49.4808C31.431 52.8708 29.9622 57.5498 26.6415 59.7998C25.0427 60.8798 23.2219 61.2308 21.2031 60.8498C21.883 59.2308 22.613 56.5708 22.083 53.3798C23.5629 51.9008 26.2716 48.4998 25.9826 43.5808C25.8416 41.1698 24.6627 38.1798 20.6232 35.6698C20.6232 35.1798 20.6132 34.6798 20.6022 34.1508C20.5432 32.0098 20.4832 29.3398 21.4831 24.8308C22.102 21.9998 23.6019 19.9008 25.9316 18.6108C27.9824 17.4598 30.5511 16.9908 33.1618 16.9908C35.9615 16.9908 38.8112 17.5308 41.151 18.3398C46.8104 20.3208 48.9201 24.4808 49.0001 27.7098C49.0891 31.2498 46.9294 34.3498 43.3607 35.8098ZM15.4327 56.6508C15.3637 56.4408 15.2937 56.2198 15.2437 55.9908C16.6826 55.9808 18.0634 55.7308 19.2533 55.2698C19.3133 57.2698 18.7834 58.9108 18.3634 59.8898C16.9036 59.1298 15.9427 58.0708 15.4327 56.6508ZM3.12504 32.0398C6.22371 33.7808 10.0533 34.9408 12.3241 35.5308H12.3341C14.0129 35.9698 15.8337 36.5598 17.4725 37.3608C18.4424 37.8308 19.3633 38.3708 20.1532 38.9808C21.753 40.2308 22.8629 41.7898 22.9829 43.7498C23.1529 46.4808 22.083 48.6108 21.0521 49.9908C20.2432 48.1608 19.0333 46.4198 17.4235 44.7808C16.7226 44.0598 15.9427 43.3608 15.0838 42.6798C14.2838 42.0398 13.4139 41.4108 12.473 40.8098C11.7841 40.3708 10.8532 40.5598 10.4043 41.2598C9.95431 41.9598 10.1543 42.8898 10.8532 43.3308C11.9541 44.0398 12.954 44.7808 13.8429 45.5398C14.7338 46.2898 15.5227 47.0708 16.1826 47.8708C17.3635 49.2598 18.2034 50.7098 18.7034 52.2098C17.8025 52.6908 16.5036 52.9998 15.0338 52.9998C14.1929 52.9998 13.284 52.8898 12.3741 52.6508C12.2731 52.6208 12.1641 52.5898 12.0531 52.5598C9.75433 51.8608 6.77365 50.0808 5.00484 45.6108C2.85407 40.1508 2.87507 34.9008 3.12504 32.0398ZM42.1399 15.5098C37.3714 13.8498 29.8822 12.9698 24.4718 15.9908C21.3631 17.7198 19.3733 20.4698 18.5524 24.1798C17.4835 28.9908 17.5435 31.9698 17.6025 34.1398C16.3026 33.5808 14.8028 33.0808 13.084 32.6298C8.66445 31.4808 4.93385 29.9008 2.87507 28.3098C2.46511 27.9998 1.92517 27.9198 1.44422 28.0898C0.955273 28.2698 0.594311 28.6798 0.485323 29.1798L0.481773 29.1974C0.371282 29.7443 -1.26965 37.8661 2.21514 46.7098C4.01395 51.2698 7.35359 54.4108 11.6031 55.5498C11.7841 55.5998 11.9541 55.6398 12.1341 55.6698C12.2231 56.3708 12.3931 57.0308 12.614 57.6608C13.4839 60.0998 15.2627 61.8898 17.9035 62.9698C19.7033 63.7098 21.3131 63.9998 22.7329 63.9998C25.1417 63.9998 27.0115 63.1698 28.3223 62.2808C32.5819 59.4008 34.4407 53.7498 34.3907 49.4408C34.3407 44.9998 37.7413 41.3398 44.4906 38.5898C49.2501 36.6508 52.1198 32.4508 51.9998 27.6298C51.9288 24.9298 50.9499 22.4198 49.2401 20.3208C47.5403 18.2308 45.1106 16.5498 42.1399 15.5098Z" fill="black"/>
</svg>

<svg width="64" height="64" viewBox="0 0 64 64" fill="none" xmlns="http://www.w3.org/2000/svg"><path fill-rule="evenodd" clip-rule="evenodd" d="M28.53 5.216c-.367.035-.954.163-1.26.542-.297.37-.294.968-.238 1.402.192 1.516 1.046 1.516 1.41 1.516 1.106 0 1.816-.722 2.096-1.071-.217-.72-.337-1.541-.355-2.424-.505.001-1.093.01-1.654.035ZM34.428 3h-.038c-.719.006-1.208.768-1.217 1.895-.012 1.726.503 2.65.72 2.744 1.506-.002 2.27-.49 2.525-.694a8.483 8.483 0 0 1 .009-2.256c.042-.322.12-.67.234-1.027C36.347 3.43 35.607 3 34.429 3Zm6.586.012c-1.264 0-1.61 2.046-1.613 2.066-.07.546-.234 2.351.68 2.584 1.313.333 2.003.216 2.24.111a6.544 6.544 0 0 1 .249-2.343c.17-.579.369-1.109.608-1.577-.533-.39-1.34-.837-2.158-.841h-.006ZM47.18 4.06c-.268 0-.41.07-.478.11-.481.25-.931.99-1.241 2.09-.45 1.561.19 2.37.57 2.52h.002c.95.371 1.688.66 2.798-1.93.08-.199.17-.59.17-1.01 0-.29-.04-.6-.16-.859-.1-.231-.31-.571-.94-.781-.3-.11-.54-.14-.72-.14Zm-4.938 3.873.099.056a.912.912 0 0 0-.018-.16v-.012a.762.762 0 0 0-.08.117Zm-9.99 2.21c-.864.795-2.152 1.533-3.81 1.533-2.38 0-4.062-1.586-4.386-4.138-.231-1.834.349-3.002.877-3.659.763-.949 1.937-1.522 3.396-1.656a49.711 49.711 0 0 1 2.516-.039C31.631.765 33 .011 34.367 0h.063c1.79 0 3.056.601 3.803 1.103.706-.648 1.624-1.091 2.78-1.091h.024c1.824.01 3.305.934 4.128 1.582a.022.022 0 0 1 .005-.004c.034-.027.068-.045.102-.063l.049-.027c.729-.38 1.928-.71 3.568-.139 1.261.439 2.191 1.269 2.7 2.409.731 1.65.34 3.45-.009 4.26l-.003.006C51.115 9.111 49.874 12 46.991 12c-.611 0-1.29-.13-2.061-.43a3.783 3.783 0 0 1-1.455-1.037c-.474.2-1.085.348-1.886.348-.63 0-1.374-.09-2.247-.311a3.682 3.682 0 0 1-1.625-.897c-.79.474-2.026.964-3.826.964a2.976 2.976 0 0 1-1.64-.494ZM59.65 14.57c-2.96 2.77-3.94 2.88-5.21 1.77-1.01-.89-.14-3.23 1.1-5.02.7-1.02 1.62-2.2 2.48-2.31.05-.01.1-.01.15-.01.53 0 1.19.34 1.959 1 .55.48.851 1.1.871 1.8.019.94-.47 1.95-1.35 2.77Zm2.439-6.84c-1.549-1.33-3-1.88-4.45-1.7-2.029.27-3.45 1.96-4.568 3.58-2.53 3.66-2.76 7.1-.601 8.99 1.17 1.02 2.3 1.41 3.38 1.41 2.38 0 4.44-1.93 5.85-3.25 1.5-1.4 2.34-3.23 2.3-5.02-.031-1.56-.71-2.98-1.911-4.01ZM43.36 35.81c-9.97 4.07-12.01 9.68-11.97 13.67.04 3.39-1.429 8.07-4.75 10.32-1.598 1.08-3.42 1.43-5.438 1.05.68-1.62 1.41-4.28.88-7.47 1.48-1.48 4.189-4.88 3.9-9.8-.141-2.41-1.32-5.4-5.36-7.91 0-.49-.01-.99-.02-1.52-.06-2.14-.12-4.81.88-9.32.619-2.83 2.119-4.93 4.449-6.22 2.05-1.15 4.62-1.62 7.23-1.62 2.8 0 5.65.54 7.989 1.35 5.66 1.98 7.77 6.14 7.85 9.37.088 3.54-2.072 6.64-5.64 8.1ZM15.433 56.65a6.69 6.69 0 0 1-.19-.66c1.44-.01 2.82-.26 4.01-.72a11 11 0 0 1-.89 4.62c-1.46-.76-2.42-1.82-2.93-3.24ZM3.125 32.04c3.099 1.74 6.928 2.9 9.2 3.49h.01c1.678.44 3.499 1.03 5.137 1.83.97.47 1.891 1.01 2.681 1.62 1.6 1.25 2.71 2.81 2.83 4.77.17 2.73-.9 4.86-1.93 6.24-.81-1.83-2.02-3.57-3.63-5.21a24.37 24.37 0 0 0-2.34-2.1c-.8-.64-1.67-1.27-2.61-1.87a1.502 1.502 0 0 0-2.069.45c-.45.7-.25 1.63.45 2.07 1.1.71 2.1 1.45 2.989 2.21.89.75 1.68 1.53 2.34 2.33 1.18 1.39 2.02 2.84 2.52 4.34-.9.48-2.2.79-3.67.79-.84 0-1.749-.11-2.659-.35a13.6 13.6 0 0 0-.32-.09c-2.3-.7-5.28-2.48-7.05-6.95-2.15-5.46-2.129-10.71-1.879-13.57ZM42.14 15.51c-4.769-1.66-12.258-2.54-17.668.48-3.109 1.73-5.099 4.48-5.92 8.19-1.069 4.81-1.008 7.79-.95 9.96-1.3-.56-2.8-1.06-4.518-1.51-4.42-1.15-8.15-2.73-10.209-4.32a1.508 1.508 0 0 0-2.39.87l-.003.017c-.11.547-1.752 8.67 1.733 17.513 1.799 4.56 5.139 7.7 9.388 8.84.181.05.351.09.531.12.09.7.26 1.36.48 1.99.87 2.44 2.649 4.23 5.29 5.31 1.8.74 3.41 1.03 4.829 1.03 2.409 0 4.279-.83 5.59-1.72 4.259-2.88 6.118-8.53 6.068-12.84-.05-4.44 3.35-8.1 10.1-10.85 4.76-1.94 7.629-6.14 7.509-10.96-.071-2.7-1.05-5.21-2.76-7.31-1.7-2.09-4.13-3.77-7.1-4.81Z" fill="currentColor"/></svg>
